X: 30000
T: Off Go Those St. John's Girls
R: polka
M: 2/4
K: Dmixolydian
ff ge|d2 d>e|f/e/f ge|d2 d>e|
f/e/f ge|d2 A>B|cd BA|GB/G/ FG||
AF AB|GB FG|AF AB|GB FG|
AF AB|g2 f>e|f/e/d ef|d2- d2||

